react/icons/TwitterIcon/TwitterIcon.svg

<svg xmlns="http://www.w3.org/2000/svg" width="1024" height="1024" viewBox="0 0 1024 1024"><path d="M527.03 1022.79c-58.416 0-115.102-11.446-168.484-34.022-51.547-21.8-97.835-52.998-137.578-92.732-39.744-39.734-70.952-86.017-92.755-137.557C105.63 705.1 94.18 648.414 94.18 590c0-58.416 11.45-115.102 34.032-168.48 21.804-51.54 53.01-97.82 92.755-137.557 39.744-39.734 86.03-70.934 137.578-92.73 53.383-22.574 110.068-34.02 168.485-34.02 58.4 0 115.077 11.445 168.45 34.02 51.54 21.798 97.82 52.998 137.56 92.73 39.74 39.736 70.945 86.018 92.748 137.557 22.58 53.38 34.03 110.064 34.03 168.48 0 58.414-11.45 115.1-34.03 168.478-21.803 51.54-53.008 97.82-92.747 137.557-39.737 39.733-86.02 70.935-137.56 92.732-53.37 22.577-110.047 34.022-168.45 34.022zm0-801.58c-98.52 0-191.145 38.36-260.81 108.014C196.55 398.878 158.18 491.49 158.18 590c0 98.51 38.37 191.122 108.038 260.776C335.885 920.43 428.51 958.79 527.03 958.79c98.492 0 191.1-38.36 260.757-108.013C857.453 781.12 895.82 688.507 895.82 590c0-98.508-38.367-191.12-108.033-260.778-69.658-69.652-162.263-108.01-260.756-108.01z"/><path d="M474.734 769.6c165.722 0 256.363-137.282 256.363-256.323 0-3.947 0-7.857-.27-11.728 17.63-12.688 32.884-28.516 44.957-46.606-16.44 7.32-33.88 12.074-51.778 14.22 18.855-11.268 32.922-29.014 39.63-49.862-17.707 10.54-37.024 17.937-57.223 21.846-34.108-36.257-91.177-38.02-127.434-3.91-23.456 22.037-33.345 54.805-26.1 86.118-72.437-3.64-139.93-37.866-185.653-94.128-23.953 41.125-11.727 93.783 27.864 120.267-14.333-.46-28.36-4.292-40.874-11.306v1.148c0 42.887 30.24 79.87 72.265 88.303-13.26 3.642-27.154 4.14-40.682 1.535 11.804 36.754 45.606 61.857 84.183 62.624-31.906 25.025-71.324 38.67-111.892 38.632-7.167-.038-14.315-.46-21.443-1.304 41.22 26.444 89.146 40.473 138.088 40.435"/></svg>

<?xml version="1.0" encoding="UTF-8" standalone="no"?>
<!DOCTYPE svg PUBLIC "-//W3C//DTD SVG 1.1//EN" "http://www.w3.org/Graphics/SVG/1.1/DTD/svg11.dtd">
<svg width="100%" height="100%" viewBox="0 0 1024 1024" version="1.1" xmlns="http://www.w3.org/2000/svg" xmlns:xlink="http://www.w3.org/1999/xlink" xml:space="preserve" style="fill-rule:evenodd;clip-rule:evenodd;stroke-linejoin:round;stroke-miterlimit:1.41421;">
    <g transform="matrix(1.17906,0,0,1.17906,-109.864,-183.139)">
        <path d="M527.03,1022.79C468.614,1022.79 411.928,1011.34 358.546,988.768C306.999,966.968 260.711,935.77 220.968,896.036C181.224,856.302 150.016,810.019 128.213,758.479C105.63,705.1 94.18,648.414 94.18,590C94.18,531.584 105.63,474.898 128.212,421.52C150.016,369.98 181.222,323.7 220.967,283.963C260.711,244.229 306.997,213.029 358.545,191.233C411.928,168.659 468.613,157.213 527.03,157.213C585.43,157.213 642.107,168.658 695.48,191.233C747.02,213.031 793.3,244.231 833.04,283.963C872.78,323.699 903.985,369.981 925.788,421.52C948.368,474.9 959.818,531.584 959.818,590C959.818,648.414 948.368,705.1 925.788,758.478C903.985,810.018 872.78,856.298 833.041,896.035C793.304,935.768 747.021,966.97 695.481,988.767C642.111,1011.34 585.434,1022.79 527.031,1022.79L527.03,1022.79ZM527.03,221.21C428.51,221.21 335.885,259.57 266.22,329.224C196.55,398.878 158.18,491.49 158.18,590C158.18,688.51 196.55,781.122 266.218,850.776C335.885,920.43 428.51,958.79 527.03,958.79C625.522,958.79 718.13,920.43 787.787,850.777C857.453,781.12 895.82,688.507 895.82,590C895.82,491.492 857.453,398.88 787.787,329.222C718.129,259.57 625.524,221.212 527.031,221.212L527.03,221.21Z" style="fill-rule:nonzero;"/>
    </g>
    <g transform="matrix(1.17906,0,0,1.17906,-109.864,-183.139)">
        <path d="M474.734,769.6C640.456,769.6 731.097,632.318 731.097,513.277C731.097,509.33 731.097,505.42 730.827,501.549C748.457,488.861 763.711,473.033 775.784,454.943C759.344,462.263 741.904,467.017 724.006,469.163C742.861,457.895 756.928,440.149 763.636,419.301C745.929,429.841 726.612,437.238 706.413,441.147C672.305,404.89 615.236,403.127 578.979,437.237C555.523,459.274 545.634,492.042 552.879,523.355C480.442,519.715 412.949,485.489 367.226,429.227C343.273,470.352 355.499,523.01 395.09,549.494C380.757,549.034 366.73,545.202 354.216,538.188L354.216,539.336C354.216,582.223 384.456,619.206 426.481,627.639C413.221,631.281 399.327,631.779 385.799,629.174C397.603,665.928 431.405,691.031 469.982,691.798C438.076,716.823 398.658,730.468 358.09,730.43C350.923,730.392 343.775,729.97 336.647,729.126C377.867,755.57 425.793,769.599 474.735,769.561" style="fill-rule:nonzero;"/>
    </g>
</svg>
